X:2662
T:Cariao
R:Careáu
C:Tradicional
S:Música Tradicional Asturiana, (C) Tello & Tito. Asturies, 2001.
S:http://pagina.de/MusTradAst <telloytito@asturies.org>
N:Baille del Oucidente asturianu.
N:El ritmu ye tenrariu.
N:Los bailladores dancien en rueda y van cambiando de parexa demientres van dando vueltes, dándose la cara "careándose".
N:Nes brañes de Silvamayor, Emberniegu, Busecu y Aristébanu cántase con payel.la.
N:Nes de Tinéu acompáñase de pandeiru redondu y payel.la.
A:Asturies
B:Musicología Asturiana - La Canción Tradicional, Modesto González Cobas
Z:La Canción Tradicional, M.G.C.
M:3/8
L:1/8
Q:3/8=80
W:treinta reales me costó la cinta de mi pelo
W:aunque me den un doblón la cinta no la vendo
W:ni la vendo ni la doy ni la vendo
W:treinta reales me costó la cinta de mi pelo
K:G
|G>AB|cBA|G>AB|cBA|G3|A3|
|A>BA|GFE|D>GG|GFE|D3|G3|
|G>AB|ABA|G>AB|ABA|G3|A3|
|A>BA|GFE|D>GG|GFE|D3|G3|


